<?xml version="1.0" encoding="UTF-8"?>
<map version="1.10" tiledversion="1.12.2" orientation="orthogonal" renderorder="right-down" width="50" height="100" tilewidth="16" tileheight="16" infinite="0" nextlayerid="2" nextobjectid="1">
 <tileset firstgid="1" source="../tilesets/tiles.tsx"/>
 <layer id="1" name="Tile Layer 1" width="50" height="100">
  <data encoding="csv">
253,253,253,253,254,254,252,254,254,254,254,254,253,254,252,253,253,254,254,253,253,254,252,254,254,254,252,253,253,254,253,252,253,252,253,252,254,254,254,253,253,252,253,253,252,253,252,253,252,253,
254,252,254,253,252,252,254,253,254,253,252,252,254,253,252,253,252,253,253,254,252,254,253,252,253,252,252,254,253,254,252,254,252,253,254,253,253,252,252,254,254,252,252,253,253,253,253,253,252,253,
252,252,253,254,252,254,252,252,254,252,253,252,252,252,252,253,253,253,254,252,254,254,253,254,252,252,253,252,252,254,253,252,253,253,253,254,252,252,252,252,254,252,254,254,254,254,252,253,253,253,
254,254,253,252,253,254,254,253,254,253,254,252,252,252,254,254,254,254,254,252,254,252,252,254,253,253,252,252,252,252,252,253,254,252,253,253,253,254,252,252,252,252,254,254,254,253,254,253,254,254,
252,252,252,252,253,253,253,254,252,254,253,253,254,252,254,253,253,252,252,254,253,252,252,253,253,253,253,254,253,252,254,254,252,254,253,253,252,252,253,252,253,252,254,253,253,254,253,252,254,252,
254,253,254,253,253,252,252,254,252,254,252,252,252,253,254,253,252,254,252,254,252,254,252,254,252,253,254,254,254,253,253,254,254,252,252,252,252,254,253,254,252,252,254,253,252,253,253,254,252,254,
254,253,254,253,254,252,253,254,252,254,253,254,253,253,252,254,254,254,253,252,254,252,252,254,252,252,252,254,253,254,253,252,252,254,253,253,252,252,252,254,252,252,252,252,253,252,254,252,253,254,
253,253,253,253,253,253,254,254,252,253,254,253,254,253,254,253,253,254,254,254,253,253,254,252,254,253,252,252,254,253,252,253,253,252,253,254,252,254,252,253,254,253,252,254,252,252,254,252,252,254,
254,254,253,252,252,254,252,254,252,254,252,252,254,254,253,253,252,254,254,252,254,253,254,253,254,253,252,252,254,252,253,254,254,252,254,253,253,253,254,252,254,252,253,254,252,253,252,254,253,253,
254,254,253,252,254,253,254,252,254,252,252,254,254,252,254,254,252,253,254,253,253,253,253,254,254,253,252,254,253,253,254,254,253,253,252,253,254,253,252,252,253,252,252,254,252,254,254,254,252,254,
252,254,254,252,254,252,253,254,254,254,253,253,254,252,252,254,252,254,253,254,253,254,253,252,253,252,252,252,254,254,253,253,252,254,252,253,252,253,252,253,254,254,254,254,252,253,254,254,252,252,
252,254,254,252,254,254,253,254,254,252,252,254,254,252,253,253,252,253,252,253,252,252,252,252,254,252,253,253,253,252,254,252,252,253,252,254,252,254,252,253,252,253,252,252,254,252,252,252,252,253,
253,252,253,254,254,252,254,254,252,252,254,254,252,253,253,254,253,253,254,252,254,253,254,254,252,253,254,253,253,252,253,253,254,252,253,252,253,254,253,253,253,252,254,253,254,254,253,253,254,253,
252,254,253,253,252,254,254,254,254,252,254,252,254,254,252,253,253,252,253,254,253,253,253,252,254,253,254,252,253,254,254,252,252,254,254,252,252,252,252,252,254,254,254,254,253,253,254,254,253,253,
252,254,253,253,254,254,252,252,254,252,254,253,253,252,252,252,252,252,254,252,254,254,252,253,253,252,253,252,253,253,253,254,252,254,253,252,252,254,252,253,252,254,252,252,252,254,253,253,252,252,
252,253,254,253,253,254,253,254,254,252,252,252,252,254,253,253,253,253,254,253,253,252,252,254,253,252,252,253,252,253,252,253,253,254,254,253,254,254,254,254,253,252,252,254,252,254,253,254,252,254,
252,254,253,254,254,254,254,254,253,253,253,252,253,254,252,253,253,254,254,254,254,252,253,252,253,252,253,254,253,252,254,254,253,252,253,252,254,252,254,254,253,254,253,252,254,252,253,252,252,252,
253,253,252,252,252,253,254,254,254,253,253,254,252,253,253,254,253,254,254,254,253,252,253,254,253,253,252,252,254,253,253,254,252,254,252,252,252,254,254,254,253,253,253,252,252,254,254,254,254,252,
253,253,253,252,254,252,252,252,254,253,254,254,253,253,252,254,254,253,254,252,252,254,253,252,252,252,254,253,253,254,254,253,252,254,252,254,252,253,253,254,254,254,253,254,252,254,253,253,252,254,
254,252,252,254,254,254,252,252,252,254,252,253,254,254,254,252,253,254,252,253,252,254,253,252,252,254,252,252,252,253,253,253,254,253,253,254,252,254,253,253,252,252,254,253,252,253,253,252,254,254,
253,253,253,252,252,254,252,253,252,252,253,254,253,252,254,253,252,252,252,252,253,252,252,253,252,254,254,253,253,253,254,254,252,253,252,253,254,254,254,253,253,254,252,252,254,252,252,254,254,254,
254,253,252,252,254,253,254,252,254,253,252,254,252,252,254,253,253,254,252,253,252,252,253,254,252,252,252,252,254,253,254,253,253,252,252,253,254,254,254,253,252,252,254,254,252,254,253,252,254,253,
253,253,254,253,252,252,253,252,252,254,254,252,254,252,252,252,253,254,252,252,254,254,254,252,254,252,254,252,252,252,254,254,254,252,252,252,254,254,253,253,252,253,254,253,254,254,253,254,254,253,
252,253,253,252,253,252,254,254,253,253,254,253,252,252,253,254,252,254,254,254,252,253,254,253,254,252,253,253,253,253,252,254,254,252,254,254,254,252,253,253,252,254,253,253,253,253,254,252,252,253,
254,254,252,253,252,253,252,252,254,254,252,252,254,254,253,252,252,254,253,252,253,252,254,253,254,252,252,254,254,254,253,253,252,253,253,253,252,254,252,254,252,254,252,254,254,252,252,254,252,254,
252,254,252,252,252,253,254,253,252,252,252,253,254,253,253,254,254,252,253,254,253,254,253,252,254,254,253,252,252,252,254,254,254,252,253,253,252,253,254,252,252,252,252,252,254,252,253,253,254,254,
253,252,252,254,253,252,254,252,253,253,253,254,254,253,252,253,253,253,252,252,253,254,253,253,254,253,254,252,252,252,252,254,252,254,252,253,252,253,253,254,254,254,254,253,253,253,253,252,254,252,
254,252,252,254,254,252,253,253,254,253,252,254,252,253,253,254,252,254,252,254,252,252,253,252,254,254,254,253,253,253,254,253,253,253,253,254,254,252,253,252,252,253,253,253,253,252,253,252,252,252,
252,253,252,252,252,254,252,252,252,253,253,253,252,252,254,253,253,253,253,253,254,253,253,254,253,254,253,252,252,252,253,252,252,254,254,254,253,254,252,253,252,254,252,253,254,253,253,254,252,254,
252,252,254,252,252,253,253,252,253,254,254,253,252,253,254,252,253,252,252,252,254,252,254,253,252,253,254,253,252,253,254,254,253,252,253,254,253,254,252,254,254,252,254,254,254,252,253,253,254,252,
253,252,252,252,254,253,253,254,253,252,254,254,254,253,253,252,253,252,252,252,254,253,252,253,252,254,254,254,252,254,252,254,253,252,252,254,254,253,253,252,252,252,252,253,252,254,253,254,252,252,
252,252,253,252,253,252,254,253,253,254,254,252,253,252,252,252,254,252,252,254,254,254,254,253,253,254,254,252,254,254,252,252,252,253,253,253,253,254,253,252,254,252,254,252,252,254,253,253,252,254,
253,253,252,253,253,254,254,254,253,252,252,254,253,252,254,252,254,253,253,252,253,253,254,253,253,252,253,252,252,252,253,254,253,252,254,254,252,252,253,254,254,254,253,252,254,252,253,254,252,252,
254,252,252,253,252,253,254,252,253,253,254,252,254,254,254,252,252,252,254,252,253,252,253,253,254,252,253,252,254,253,253,253,252,252,254,254,254,253,254,254,254,254,252,252,254,253,253,252,253,253,
252,253,253,252,253,253,252,254,254,254,252,252,254,253,252,252,252,252,254,252,252,253,254,254,254,254,252,252,253,254,254,254,254,253,253,252,252,252,252,253,253,252,254,252,253,252,254,254,254,253,
254,253,253,252,253,252,252,252,254,252,252,254,252,252,252,252,253,253,253,254,252,254,253,254,254,253,252,253,252,253,252,252,254,253,252,254,252,252,254,254,253,254,254,254,253,253,254,253,254,254,
252,254,253,252,253,253,253,253,254,252,253,253,254,252,252,253,254,253,254,253,252,252,254,254,253,252,254,252,252,253,253,254,254,254,253,252,254,254,254,253,252,253,254,254,254,254,253,252,253,253,
253,254,252,253,252,254,253,254,252,253,252,253,253,252,254,253,254,254,254,253,253,253,254,253,254,253,252,252,253,253,254,253,252,252,252,253,254,254,254,253,254,252,253,253,254,252,252,254,253,253,
252,254,253,253,254,252,254,252,254,253,254,252,252,253,252,254,254,253,252,253,252,253,254,254,252,252,253,253,252,254,252,252,253,253,254,254,252,253,254,253,254,253,253,253,254,252,254,253,252,253,
254,252,252,253,253,252,254,254,252,254,253,252,254,252,254,254,254,253,253,252,254,254,253,254,252,254,253,252,254,253,254,252,254,254,253,253,254,252,254,254,252,254,254,252,252,252,253,252,252,254,
254,254,253,254,254,254,252,254,252,254,254,254,254,252,254,254,252,253,253,254,254,252,253,254,253,253,253,253,253,252,253,254,254,253,253,252,253,253,254,254,254,253,253,253,252,252,252,254,253,253,
254,252,253,253,253,252,252,254,253,253,254,254,253,252,252,253,254,254,252,254,254,252,254,254,254,254,252,253,253,252,254,253,254,254,254,252,253,253,253,254,252,253,252,253,253,253,254,252,253,254,
254,252,252,254,252,253,254,252,253,252,252,254,254,253,252,253,254,253,254,254,252,253,254,253,252,254,253,254,254,254,254,252,252,252,253,253,253,254,252,254,252,253,252,252,252,252,253,253,254,252,
254,252,252,254,253,254,252,253,254,254,253,254,252,252,252,253,254,254,253,252,252,252,253,254,254,252,253,252,254,254,254,253,254,253,253,252,252,254,253,254,252,252,254,253,252,253,252,253,252,254,
254,253,253,252,253,254,253,252,253,252,254,254,254,252,253,252,253,254,252,252,253,254,253,253,254,252,253,252,253,253,253,252,252,252,252,253,254,254,254,253,252,254,252,254,252,253,253,253,252,254,
252,254,252,254,252,252,252,253,252,252,253,254,252,254,253,252,254,254,253,252,253,254,253,252,252,253,253,252,254,252,252,252,254,254,252,253,254,252,253,254,254,252,253,254,253,253,253,252,252,253,
254,253,254,252,254,252,254,254,254,252,252,253,253,252,254,254,254,254,253,253,254,254,252,253,252,254,253,252,253,252,252,254,253,253,254,253,252,252,254,252,254,254,252,253,253,252,252,254,253,254,
252,254,253,254,254,253,254,252,254,253,253,252,253,254,252,252,253,253,253,252,254,254,253,254,254,253,252,252,253,253,254,253,253,254,252,253,253,253,254,253,252,254,252,254,253,254,254,252,254,254,
252,254,252,253,252,253,253,254,253,254,253,254,253,252,252,252,252,254,254,253,253,252,254,252,254,252,252,254,253,253,253,253,254,252,252,254,252,253,252,254,253,252,254,252,252,252,254,252,252,252,
252,254,254,254,253,254,252,252,254,254,253,253,253,254,253,252,252,254,254,252,252,254,253,254,252,252,253,252,254,253,254,254,253,253,252,252,253,252,252,253,252,254,252,254,253,254,254,253,253,252,
253,252,253,252,254,252,252,254,253,254,253,254,252,252,253,254,252,252,253,254,252,254,252,252,254,253,253,252,253,254,254,252,252,253,253,252,253,254,252,252,252,254,254,252,254,254,254,253,253,253,
253,252,253,252,254,252,254,254,253,252,253,253,254,253,253,253,254,254,253,254,252,254,252,253,254,252,252,254,253,253,253,254,253,253,254,252,253,254,252,253,252,252,253,252,252,254,252,253,254,252,
253,254,252,253,254,253,254,252,252,254,253,252,254,252,253,252,253,254,252,253,253,254,252,252,253,253,254,254,252,254,254,254,253,252,252,254,252,252,254,252,252,252,254,252,254,252,253,254,253,253,
254,252,254,252,253,254,252,253,252,252,253,254,254,254,254,252,253,252,253,252,254,254,254,252,253,252,254,254,253,254,254,253,252,253,252,253,252,254,252,254,252,253,253,253,254,253,253,252,253,252,
253,252,253,253,252,252,252,253,252,254,252,254,252,253,254,252,252,254,254,253,253,253,253,253,252,253,252,254,253,253,254,252,254,252,253,253,253,252,252,252,252,252,254,254,253,252,254,253,252,254,
252,253,252,252,253,253,252,252,252,252,253,253,252,253,252,253,253,254,254,252,252,254,253,254,252,254,254,252,252,254,252,254,254,254,253,253,254,253,253,252,254,254,253,254,254,254,252,253,253,254,
252,252,252,253,253,252,253,253,252,252,253,252,254,254,253,254,253,254,252,252,252,253,252,253,254,252,252,253,253,252,253,254,252,252,253,252,253,253,252,254,254,252,252,254,252,254,254,252,252,254,
253,253,252,252,253,253,252,252,254,254,254,254,252,252,252,253,253,253,252,252,252,253,253,254,253,252,254,254,254,254,253,252,253,254,252,253,252,253,253,254,253,253,253,253,254,253,253,254,253,254,
254,252,253,254,253,253,252,254,253,253,253,254,254,254,254,253,253,253,253,254,252,253,254,254,253,252,252,252,252,252,253,254,254,253,254,253,254,252,254,254,254,252,254,252,253,252,253,252,254,252,
252,254,254,254,254,254,252,254,253,253,254,254,252,254,252,254,254,254,254,252,253,252,252,254,254,254,252,254,252,254,254,253,253,253,254,253,252,254,253,252,253,253,253,253,252,252,252,252,253,253,
254,253,254,254,254,254,254,252,252,252,254,254,252,252,254,253,254,252,252,253,253,253,254,252,252,254,254,252,254,253,252,252,252,253,253,253,253,252,252,252,252,253,253,253,252,252,253,252,252,252,
253,254,253,254,253,252,253,254,252,254,252,253,252,253,254,252,253,253,252,253,253,252,254,253,252,252,253,254,252,254,253,254,252,254,254,252,253,253,253,252,254,252,254,254,253,252,253,254,254,252,
253,254,252,253,253,252,253,254,253,254,254,253,254,253,254,254,253,254,252,252,254,252,253,252,254,252,253,253,254,253,253,253,253,254,252,254,252,254,254,253,252,252,252,252,252,252,254,253,253,254,
252,253,252,253,252,254,252,253,253,253,253,253,254,252,252,252,254,254,253,253,252,253,254,253,254,253,253,253,252,252,254,253,252,252,253,253,253,253,252,253,254,252,252,253,253,254,252,253,254,254,
254,253,254,252,254,253,253,252,254,253,253,253,254,253,252,253,253,254,254,252,253,252,252,253,252,254,252,254,254,254,252,254,253,254,254,252,253,252,254,253,254,253,254,252,254,253,253,254,252,253,
253,252,253,252,254,252,253,252,254,253,252,254,253,252,254,252,252,254,254,254,254,253,252,252,254,254,253,252,252,254,253,254,252,253,254,253,252,253,252,253,254,254,254,252,253,252,253,252,254,254,
254,254,253,254,253,253,253,253,253,253,253,252,254,252,252,253,253,253,252,254,253,254,253,253,254,253,253,253,252,252,253,253,253,252,254,253,253,254,253,254,253,253,252,253,253,253,254,252,254,252,
254,253,252,253,252,254,254,254,254,252,253,254,254,252,253,254,253,252,253,253,253,253,254,253,253,254,254,252,252,254,253,252,253,253,254,252,252,252,252,254,253,252,252,252,253,253,254,254,254,253,
253,254,253,254,252,253,254,253,252,253,252,254,254,253,252,252,254,254,252,252,252,253,253,254,253,252,253,253,254,252,254,253,252,253,252,253,253,252,253,254,254,254,253,254,254,253,253,252,252,254,
253,252,253,252,253,253,254,253,252,254,252,253,252,254,254,254,252,254,253,252,254,254,254,253,252,252,254,254,252,252,252,252,252,252,252,253,253,253,252,252,254,253,254,253,253,254,252,253,254,254,
253,254,252,252,252,252,253,252,254,252,254,254,253,253,254,253,254,253,253,253,252,254,253,254,253,253,253,254,252,253,252,253,253,252,253,252,252,253,253,253,254,253,252,254,254,253,254,254,253,253,
252,254,252,254,253,253,252,254,252,252,253,252,252,253,253,253,252,254,252,253,253,254,252,254,252,253,253,254,253,254,253,252,252,252,254,254,254,253,252,254,253,253,253,253,252,254,254,254,252,254,
254,253,254,252,252,254,254,252,252,252,254,253,253,252,252,252,253,253,252,254,252,254,254,253,252,253,254,253,252,254,253,253,254,253,252,252,253,254,253,253,253,254,253,252,253,252,252,254,252,252,
252,252,252,252,253,252,254,252,253,252,252,253,252,252,254,253,254,254,252,254,254,252,253,252,252,254,253,254,253,253,252,254,253,254,252,253,252,252,253,252,253,252,252,252,254,253,252,254,254,253,
252,253,252,253,254,254,254,252,252,253,252,252,253,254,253,252,254,254,252,252,254,253,252,254,253,252,254,254,252,252,252,253,253,252,253,254,252,252,252,252,254,253,253,252,254,253,254,254,253,253,
253,252,253,254,253,254,252,254,252,254,254,253,253,254,253,252,253,253,253,254,254,254,254,254,252,252,254,254,252,252,254,252,253,253,254,253,252,253,254,252,254,252,253,252,254,253,254,253,253,253,
253,252,253,253,253,252,252,254,253,253,254,253,254,253,253,252,254,252,254,254,252,253,252,253,252,254,253,252,252,253,252,253,253,252,252,253,254,252,252,254,254,253,254,252,254,252,253,252,253,254,
252,254,254,253,254,253,252,254,254,253,254,254,252,252,254,254,254,254,252,254,254,254,254,253,252,254,252,253,252,252,254,252,253,254,253,253,252,253,254,253,253,252,252,254,252,252,252,253,252,252,
254,252,253,254,252,252,254,254,254,252,252,253,252,254,252,253,253,254,253,252,254,254,252,254,254,253,254,253,254,252,253,252,252,254,253,252,253,253,253,253,253,252,253,253,253,254,254,252,254,252,
252,253,252,252,254,252,254,254,252,254,252,252,254,253,254,253,253,254,254,254,253,253,253,254,252,253,254,252,252,254,252,254,254,254,253,252,254,252,253,253,252,253,253,254,252,254,252,252,254,254,
254,253,253,253,252,252,253,253,252,254,252,254,253,254,254,254,252,254,254,252,253,252,254,254,254,252,254,254,254,252,253,252,252,252,252,254,254,254,252,254,252,253,254,254,252,252,254,253,253,253,
254,253,252,252,252,252,253,254,253,254,252,253,252,252,252,253,254,252,254,252,253,252,254,254,253,252,253,252,254,254,253,252,253,254,254,252,253,252,253,254,252,253,254,252,254,254,253,252,254,254,
254,252,254,252,254,253,254,254,254,253,253,252,254,253,254,254,252,252,253,252,252,252,252,252,253,253,254,253,254,252,253,252,252,253,254,253,253,254,252,254,252,254,253,253,252,253,252,253,252,252,
252,254,252,252,253,252,254,253,253,252,254,252,252,254,253,254,252,252,254,254,254,254,252,254,252,253,253,254,254,252,254,253,254,253,252,252,253,254,253,253,254,252,252,254,253,254,252,254,254,252,
252,252,252,254,254,254,254,253,252,253,252,253,253,253,253,253,253,252,253,252,253,252,254,254,252,252,254,253,254,252,253,252,254,253,254,252,253,253,252,254,252,252,254,253,252,254,253,254,254,252,
252,253,252,254,252,253,252,253,254,254,252,252,254,252,252,252,254,253,254,252,254,253,252,254,252,252,254,253,254,253,253,254,253,254,253,253,252,252,253,252,252,253,253,253,252,253,252,254,252,252,
253,252,254,254,254,252,254,254,253,254,252,253,254,252,254,253,254,254,254,253,253,253,254,254,253,253,254,252,252,254,253,253,252,254,253,252,252,254,252,253,253,254,254,254,254,254,252,252,254,253,
253,254,253,252,252,254,252,254,253,252,252,253,253,253,253,254,253,254,254,252,253,252,253,252,252,253,253,254,252,252,254,252,254,253,252,252,253,252,252,254,254,254,253,252,252,254,252,252,252,252,
254,252,252,252,254,253,253,254,254,253,254,252,253,254,252,253,254,252,253,254,252,252,252,253,254,253,254,254,254,254,254,254,252,253,252,254,253,253,252,253,253,253,254,252,253,253,252,252,254,252,
253,252,253,254,253,254,254,253,254,252,254,253,252,253,253,253,254,253,252,252,254,253,254,253,252,253,253,252,253,252,252,253,253,252,253,252,254,252,254,254,254,252,254,252,252,252,252,253,252,253,
252,253,253,254,254,254,254,254,252,252,252,252,254,253,252,253,254,252,254,253,252,253,253,252,252,253,253,253,252,253,252,253,253,254,253,252,253,253,254,253,253,253,253,252,252,254,254,252,253,253,
254,252,252,253,253,254,254,254,253,254,254,253,253,254,252,254,254,254,254,252,253,254,252,254,252,254,252,252,254,253,252,252,253,252,253,254,253,252,253,253,252,254,253,252,252,254,253,253,252,252,
254,253,254,254,254,254,254,254,253,253,252,252,252,253,252,252,252,252,254,252,253,254,254,252,253,254,254,253,254,254,254,254,252,254,252,253,254,252,254,253,253,252,252,254,254,252,253,252,254,252,
253,253,254,253,252,252,254,254,253,254,253,253,252,254,254,253,253,254,252,253,254,253,252,253,252,252,254,253,254,252,252,253,254,254,252,252,253,252,254,253,254,253,254,252,253,253,252,252,254,254,
254,254,252,254,252,253,252,252,254,252,252,254,254,252,254,254,254,252,254,253,252,254,253,254,252,253,254,253,254,254,253,252,254,252,253,254,254,252,253,254,253,254,253,254,252,252,252,253,253,254,
253,252,254,252,253,252,253,254,254,253,252,254,254,254,252,254,254,252,254,253,254,253,252,253,252,252,252,253,253,254,253,253,254,252,253,252,254,253,254,253,254,254,252,252,254,254,254,253,254,252,
254,254,252,253,253,254,254,253,252,252,252,254,253,253,252,253,253,253,252,253,254,252,252,252,253,254,253,252,253,252,253,253,253,254,254,253,254,252,253,252,252,253,254,253,252,254,253,252,253,252,
253,253,253,254,252,252,254,252,254,252,252,253,253,253,254,252,253,252,253,252,253,254,252,254,253,253,252,253,252,253,252,252,254,252,254,254,254,253,254,254,254,253,252,254,253,254,254,253,252,253,
253,252,253,254,253,252,254,252,254,252,254,254,253,252,253,253,252,254,252,254,253,254,252,252,254,252,253,253,252,254,253,254,254,252,252,254,253,253,253,253,254,253,252,253,253,254,252,253,253,253,
252,254,254,253,254,253,254,253,254,254,252,253,253,253,252,254,252,254,252,253,254,253,253,252,253,252,252,254,252,252,253,253,253,253,252,253,254,253,253,253,252,254,252,254,254,253,254,253,254,253
</data>
 </layer>
</map>
